svg/fluentui-system-icons/ic_fluent_document_link_20_filled.svg

<svg width="20" height="20" viewBox="0 0 20 20" fill="none" xmlns="http://www.w3.org/2000/svg">
<path d="M10 2V6.5C10 7.32843 10.6716 8 11.5 8H16V16.5C16 17.3284 15.3284 18 14.5 18H11.2422C11.7209 17.285 12 16.4251 12 15.5C12 13.0147 9.98528 11 7.5 11H4V3.5C4 2.67157 4.67157 2 5.5 2H10ZM11 2.25V6.5C11 6.77614 11.2239 7 11.5 7H15.75L11 2.25ZM5 12.5C5 12.2239 4.77614 12 4.5 12L4.30796 12.0052C2.46428 12.1049 1 13.6314 1 15.5C1 17.433 2.567 19 4.5 19L4.58988 18.9919C4.82312 18.9496 5 18.7455 5 18.5C5 18.2239 4.77614 18 4.5 18L4.33562 17.9947C3.03154 17.91 2 16.8255 2 15.5C2 14.1193 3.11929 13 4.5 13L4.58988 12.9919C4.82312 12.9496 5 12.7455 5 12.5ZM11 15.5C11 13.567 9.433 12 7.49999 12L7.41012 12.0081C7.17688 12.0504 6.99999 12.2545 6.99999 12.5C6.99999 12.7761 7.22386 13 7.49999 13L7.66438 13.0053C8.96846 13.09 9.99999 14.1745 9.99999 15.5C9.99999 16.8807 8.88071 18 7.49999 18L7.4977 18.0046L7.40787 18.0131C7.17481 18.0565 6.99888 18.2614 6.99999 18.5069C7.00127 18.783 7.22616 19.0059 7.5023 19.0046V19L7.69411 18.9948C9.53572 18.8951 11 17.3686 11 15.5ZM7.50023 15.0023L4.50023 15L4.41035 15.008C4.17708 15.0502 4.00011 15.2543 4 15.4998C3.99987 15.7759 4.22363 15.9999 4.49977 16L7.49977 16.0023L7.58965 15.9943C7.82292 15.9521 7.99989 15.748 8 15.5025C8.00013 15.2264 7.77637 15.0024 7.50023 15.0023Z" fill="#212121"/>
</svg>

<svg xmlns="http://www.w3.org/2000/svg" width="20" height="20"><path d="M10 2v4.5A1.5 1.5 0 0 0 11.5 8H16v8.5a1.5 1.5 0 0 1-1.5 1.5h-3.258A4.5 4.5 0 0 0 7.5 11H4V3.5A1.5 1.5 0 0 1 5.5 2H10Zm1 .25V6.5a.5.5 0 0 0 .5.5h4.25L11 2.25ZM5 12.5a.5.5 0 0 0-.5-.5l-.192.005A3.5 3.5 0 0 0 4.5 19l.09-.008A.5.5 0 0 0 4.5 18l-.164-.005A2.5 2.5 0 0 1 4.5 13l.09-.008A.5.5 0 0 0 5 12.5Zm6 3A3.5 3.5 0 0 0 7.5 12l-.09.008A.5.5 0 0 0 7.5 13l.164.005A2.5 2.5 0 0 1 7.5 18l-.002.005-.09.008a.5.5 0 0 0 .094.992V19l.192-.005A3.5 3.5 0 0 0 11 15.5Zm-3.5-.498L4.5 15l-.09.008A.5.5 0 0 0 4.5 16l3 .002.09-.008a.5.5 0 0 0-.09-.992Z"/></svg>
